assets/svg/10x10/invader.svg

<svg xmlns="http://www.w3.org/2000/svg" viewBox="0 -0.5 10 10" shape-rendering="crispEdges"><path stroke="#000" d="M2 1h1m4 0h1M3 2h1m2 0h1M2 3h6M1 4h2m1 0h2m1 0h2M0 5h10M0 6h1m1 0h6m1 0h1M0 7h1m2 0h1m2 0h1m2 0h1M2 8h2m2 0h2"/></svg>

<svg xmlns="http://www.w3.org/2000/svg" viewBox="0 -0.5 10 10" shape-rendering="crispEdges">
<metadata>Made with Pixels to Svg https://codepen.io/shshaw/pen/XbxvNj</metadata>
<path stroke="#ffffff" d="M0 0h10M0 1h2M3 1h4M8 1h2M0 2h3M4 2h2M7 2h3M0 3h2M8 3h2M0 4h1M3 4h1M6 4h1M9 4h1M1 6h1M8 6h1M1 7h2M4 7h2M7 7h2M0 8h2M4 8h2M8 8h2M0 9h10" />
<path stroke="#000000" d="M2 1h1M7 1h1M3 2h1M6 2h1M2 3h6M1 4h2M4 4h2M7 4h2M0 5h10M0 6h1M2 6h6M9 6h1M0 7h1M3 7h1M6 7h1M9 7h1M2 8h2M6 8h2" />
</svg>
